X:1
M:4/4
K:F
C|:FE/2F/2 GF/2G/2|AG/2A/2 BA/2B/2|cc c/2d/2c/2A/2|\
AB A:|
A|df/2f/2 ag/2f/2|af e/2d/2c/2B/2|AA Bc/2A/2|FA A3/2B/2|\
cc A:|
d|d2 g3/2e/2|dB AF|GB d3/2e/2|fe ec|AB ce|d3/2e/2 dc|\
A3:|